remix/Device/save-3-fill.svg

<svg viewBox="0 0 24 24" fill="currentColor" xmlns="http://www.w3.org/2000/svg"><path d="M4 3H18L20.7071 5.70711C20.8946 5.89464 21 6.149 21 6.41421V20C21 20.5523 20.5523 21 20 21H4C3.44772 21 3 20.5523 3 20V4C3 3.44772 3.44772 3 4 3ZM7 4V9H16V4H7ZM6 12V19H18V12H6ZM13 5H15V8H13V5Z"/></svg>

<svg viewBox="0 0 24 24" xmlns="http://www.w3.org/2000/svg"><path fill="none" d="M0 0h24v24H0Z"/><path d="M4 3h14l2.7 2.7v0c.18.18.29.44.29.7v13.58 0c0 .55-.45 1-1 1h-16v0c-.56 0-1-.45-1-1v-16 0c0-.56.44-1 1-1Zm3 1v5h9V4H7Zm-1 8v7h12v-7H6Zm7-7h2v3h-2V5Z"/></svg>
